src/icons/blockchains/dark/celo.svg

<svg width="24" height="24" viewBox="0 0 24 24" fill="none" xmlns="http://www.w3.org/2000/svg">
  <rect width="24" height="24" rx="12" fill="#080530" />
  <mask
    id="mask0_1131_18500"
    style="mask-type: alpha"
    maskUnits="userSpaceOnUse"
    x="4"
    y="4"
    width="16"
    height="16"
  >
    <rect x="4" y="4" width="16" height="16" fill="#D9D9D9" />
  </mask>
  <g mask="url(#mask0_1131_18500)">
    <path
      opacity="0.8"
      d="M10.5264 17.5506C12.7784 17.5506 14.6034 15.7257 14.6034 13.4737C14.6034 11.2217 12.7784 9.39675 10.5264 9.39675C8.27448 9.39675 6.44949 11.2217 6.44949 13.4737C6.44949 15.7257 8.27448 17.5506 10.5264 17.5506ZM10.5264 18.9757C7.48785 18.9757 5.02441 16.5123 5.02441 13.4737C5.02441 10.4351 7.48785 7.97168 10.5264 7.97168C13.565 7.97168 16.0284 10.4351 16.0284 13.4737C16.0284 16.5123 13.565 18.9757 10.5264 18.9757Z"
      fill="white"
      stroke="white"
      stroke-width="0.0833333"
    />
    <path
      opacity="0.8"
      d="M13.4737 14.6034C15.7257 14.6034 17.5506 12.7784 17.5506 10.5264C17.5506 8.27448 15.7257 6.44949 13.4737 6.44949C11.2217 6.44949 9.39675 8.27448 9.39675 10.5264C9.39675 12.7784 11.2217 14.6034 13.4737 14.6034ZM13.4737 16.0284C10.4351 16.0284 7.97168 13.565 7.97168 10.5264C7.97168 7.48785 10.4351 5.02441 13.4737 5.02441C16.5123 5.02441 18.9757 7.48785 18.9757 10.5264C18.9757 13.565 16.5123 16.0284 13.4737 16.0284Z"
      fill="white"
      stroke="white"
      stroke-width="0.0833333"
    />
    <path
      d="M15.6039 15.6051C15.0023 15.8571 14.3609 16.0001 13.7092 16.0264C14.0739 15.5724 14.3364 15.0453 14.4797 14.4796C15.0442 14.3363 15.5712 14.0737 16.0265 13.7089C16.0002 14.3608 15.8571 15.0021 15.6039 15.6051ZM10.2909 7.97363C9.92623 8.42759 9.6637 8.95461 9.52047 9.52036C8.95602 9.66362 8.42895 9.92621 7.97363 10.291C7.9999 9.63917 8.14301 8.99781 8.39631 8.39622C8.99782 8.14437 9.64046 8.00129 10.2909 7.97363Z"
      fill="white"
      stroke="white"
      stroke-width="0.0833333"
    />
  </g>
</svg>

<svg
  xmlns="http://www.w3.org/2000/svg"
  width="24"
  height="24"
  fill="none"
  xmlns:v="https://vecta.io/nano"
>
  <rect width="24" height="24" rx="12" fill="#080530" />
  <mask id="A" maskUnits="userSpaceOnUse" x="4" y="4" width="16" height="16" mask-type="alpha">
    <path fill="#d9d9d9" d="M4 4h16v16H4z" />
  </mask>
  <g mask="url(#A)">
    <path
      opacity=".8"
      d="M10.526 17.551c2.252 0 4.077-1.825 4.077-4.077a4.08 4.08 0 0 0-4.077-4.077 4.08 4.08 0 0 0-4.077 4.077c0 2.252 1.825 4.077 4.077 4.077zm0 1.425c-3.039 0-5.502-2.463-5.502-5.502s2.463-5.502 5.502-5.502 5.502 2.463 5.502 5.502-2.463 5.502-5.502 5.502z"
      fill="#fff"
      stroke="#fff"
      stroke-width=".083"
    />
    <path
      opacity=".8"
      d="M13.474 14.603c2.252 0 4.077-1.825 4.077-4.077s-1.825-4.077-4.077-4.077a4.08 4.08 0 0 0-4.077 4.077 4.08 4.08 0 0 0 4.077 4.077zm0 1.425c-3.039 0-5.502-2.463-5.502-5.502s2.463-5.502 5.502-5.502 5.502 2.463 5.502 5.502-2.463 5.502-5.502 5.502z"
      fill="#fff"
      stroke="#fff"
      stroke-width=".083"
    />
    <path
      d="M15.604 15.605c-.602.252-1.243.395-1.895.421a4.06 4.06 0 0 0 .771-1.547c.565-.143 1.092-.406 1.547-.771-.026.652-.169 1.293-.423 1.896zm-5.313-7.631a4.06 4.06 0 0 0-.77 1.547 4.08 4.08 0 0 0-1.547.771c.026-.652.169-1.293.423-1.895.602-.252 1.244-.395 1.895-.423z"
      fill="#fff"
      stroke="#fff"
      stroke-width=".083"
    />
  </g>
</svg>
